svgs/sharp-light/circle-up.svg

<svg xmlns="http://www.w3.org/2000/svg" viewBox="0 0 512 512"><!--! Font Awesome Pro 6.6.0 by @fontawesome - https://fontawesome.com License - https://fontawesome.com/license (Commercial License) Copyright 2024 Fonticons, Inc. --><path d="M256 32a224 224 0 1 1 0 448 224 224 0 1 1 0-448zm0 480A256 256 0 1 0 256 0a256 256 0 1 0 0 512zM224 256l0-32-32 0-18.7 0L256 141.3 338.7 224 320 224l-32 0 0 32 0 96-64 0 0-96zM256 96l-22.6 22.6L128 224l0 32 32 0 32 0 0 32 0 64 0 32 32 0 64 0 32 0 0-32 0-64 0-32 32 0 32 0 0-32L278.6 118.6 256 96z"/></svg>

<svg xmlns="http://www.w3.org/2000/svg" viewBox="0 0 512 512"><!--! Font Awesome Pro 6.4.2 by @fontawesome - https://fontawesome.com License - https://fontawesome.com/license (Commercial License) Copyright 2023 Fonticons, Inc. --><path d="M256 32a224 224 0 1 1 0 448 224 224 0 1 1 0-448zm0 480A256 256 0 1 0 256 0a256 256 0 1 0 0 512zM224 256V224H192 173.3L256 141.3 338.7 224H320 288v32 96H224V256zM256 96l-22.6 22.6L128 224v32h32 32v32 64 32h32 64 32V352 288 256h32 32V224L278.6 118.6 256 96z"/></svg>
